icons/round/device/ic_storage_24px.svg

<svg xmlns="http://www.w3.org/2000/svg" height="24" viewBox="0 0 24 24" width="24"><path d="M0 0h24v24H0V0z" fill="none"/><path d="M4 20h16c1.1 0 2-.9 2-2s-.9-2-2-2H4c-1.1 0-2 .9-2 2s.9 2 2 2zm0-3h2v2H4v-2zM2 6c0 1.1.9 2 2 2h16c1.1 0 2-.9 2-2s-.9-2-2-2H4c-1.1 0-2 .9-2 2zm4 1H4V5h2v2zm-2 7h16c1.1 0 2-.9 2-2s-.9-2-2-2H4c-1.1 0-2 .9-2 2s.9 2 2 2zm0-3h2v2H4v-2z"/></svg>

<svg xmlns="http://www.w3.org/2000/svg" enable-background="new 0 0 24 24" height="24" viewBox="0 0 24 24" width="24"><g><path d="M0,0h24v24H0V0z" fill="none"/></g><g><g><g><path d="M4,20h16c1.1,0,2-0.9,2-2l0,0c0-1.1-0.9-2-2-2H4c-1.1,0-2,0.9-2,2l0,0C2,19.1,2.9,20,4,20z M4,17h2v2H4V17z M2,6L2,6 c0,1.1,0.9,2,2,2h16c1.1,0,2-0.9,2-2l0,0c0-1.1-0.9-2-2-2H4C2.9,4,2,4.9,2,6z M6,7H4V5h2V7z M4,14h16c1.1,0,2-0.9,2-2l0,0 c0-1.1-0.9-2-2-2H4c-1.1,0-2,0.9-2,2l0,0C2,13.1,2.9,14,4,14z M4,11h2v2H4V11z"/></g></g></g></svg>
